X:1
T:James Gibb editions
T:Iam lucis orto sidere - Bruckner
T:#
%%score [ 1 2 3 4 ]
L:1/8
Q:1/4=120
M:2/2
K:G
V:1 treble nm="Soprano" snm="S"
V:2 treble nm="Alto" snm="A"
V:3 treble-8 nm="Tenor" snm="T"
V:4 bass nm="Bass" snm="B"
V:1
"^Anton Bruckner\n(1824-1896)"!p!"^In S. Angelum custodem WAB 18" E4 | G4 A4 | B4 c4 | B6 A2 | %4
w: Iam|lu- cis|or- to|si- de-|
[Q:1/4=60] !fermata!E4!mf![Q:1/4=120] G4 | B4 c4 | d4 e4 | d6 c2 | B4 z4 |[M:2/2]!f! B4 (A2 B2) | %10
w: re O|An- ge-|le pi-|is- si-|me!|Cae- cas\- *|
 c4 A2 c2 | e4 d4 |[Q:1/4=60] !fermata!e4!p![Q:1/4=120] e4 | d4 c4 | B4 A4 | B6 B2 | ^c4!p! E4 | %17
w: men- tis ca-|li- di-|nes Splen-|do- re|tu- o|dis- si-|pes quae|
 !courtesy!^F4 G4 | F4!mf! F2 F2 | (^G4 A4) | ^G4!f! B4 | c6 c2 | %22
w: re- cta|sunt, me e-|do\- *|ce. Ut|fa- ci-|
[Q:1/4=117] B4[Q:1/4=114] E2[Q:1/4=111] E2 |[Q:1/4=108] (E4[Q:1/4=104] F4) | %24
w: am, me ad-|mo\- *|
[Q:1/4=51] !fermata!^G4 |] %25
w: ne.|
V:2
!p! E4 | E4 C4 | D4 E4 | (D4 C2) C2 | !fermata!B,4!mf! G4 | G4 E4 | G4 G4 | G6 F2 | G4 z4 | %9
w: Iam|lu- cis|or- to|si\- * de-|re O|An- ge-|le pi-|is- si-|me!|
[M:2/2]!f! B4 (A2 B2) | c4 A2 A2 | G4 G4 | !fermata!G4!p! E4 | E4 E4 | E4 E4 | E6 E2 | E4!p! ^C4 | %17
w: Cae- cas\- *|men- tis ca-|li- di-|nes Splen-|do- re|tu- o|dis- si-|pes quae|
 D4 D4 | D4!mf! ^D2 D2 | E8 | E4!f! E4 | E6 E2 | E4 E2 E2 | E8 | !fermata!E4 |] %25
w: re- cta|sunt, me e-|do-|ce. Ut|fa- ci-|am, me ad-|mo-|ne.|
V:3
!p! E4 | E4 E4 | G4 G4 | (G4 E2) E2 | !fermata!G4!mf! G4 | G4 G4 | d4 c4 | (B2 AG A2) d2 | d4 z4 | %9
w: Iam|lu- cis|or- to|si\- * de-|re O|An- ge-|le pi-|is\- * * * si-|me!|
[M:2/2][K:treble-8]!f! B4 (A2 B2) | c4 A2 A2 | c6 B2 | !fermata!c4!p! c4 | B4 A4 | ^G4 A4 | %15
w: Cae- cas\- *|men- tis ca-|li- di-|nes Splen-|do- re|tu- o|
 (A4 ^G2) G2 | A4!p! A4 | A4 B4 | A4!mf! B2 B2 | (B4 ^c4) | B4!f! ^G4 | A6 A2 | ^G4 E2 E2 | %23
w: dis\- * si-|pes quae|re- cta|sunt, me e-|do\- *|ce. Ut|fa- ci-|am, me ad-|
 (E4 c4) | !fermata!B4 |] %25
w: mo\- *|ne.|
V:4
!p! E,4 | E,4 A,,4 | G,,4 C,4 | (G,,4 A,,2) A,,2 | !fermata!E,4!mf! G,4 | E,4 C,4 | B,,4 C,4 | %7
w: Iam|lu- cis|or- to|si\- * de-|re O|An- ge-|le pi-|
 D,6 D,2 | G,,4 z4 |[M:2/2]!f! B,4 (A,2 B,2) | C4 A,2 =F,2 | (E,2 =F,2) G,4 | %12
w: is- si-|me!|Cae- cas\- *|men- tis ca-|li\- * di-|
 !fermata!C,4!p! A,,4 | B,,4 (C,2 D,2) | E,4 E,4 | E,6 E,2 | A,,4!p! A,,4 | D,4 G,,4 | %18
w: nes Splen-|do- re *|tu- o|dis- si-|pes quae|re- cta|
 D,4!mf! B,,2 B,,2 | (E,4 A,,4) | E,4!f! E,4 | A,,6 A,,2 | E,4 E,2 D,2 | (C,4 A,,4) | %24
w: sunt, me e-|do\- *|ce. Ut|fa- ci-|am, me ad-|mo\- *|
 !fermata!E,,4 |] %25
w: ne.|

